64x64/apps/fusion-icon.svg

<svg xmlns="http://www.w3.org/2000/svg" width="64" height="64" version="1">
 <path style="opacity:0.2" d="m 4.0000004,56.200069 0,1.999971 c 0,1.549978 1.2495821,2.79996 2.80076,2.79996 L 57.20004,61 C 58.750017,61 60,59.750018 60,58.20004 l 0,-1.999971 c 0,1.549977 -1.249983,2.79996 -2.79996,2.79996 l -50.3992796,0 c -1.5503779,0 -2.79996,-1.249983 -2.79996,-2.79996 z"/>
 <rect style="fill:#4f4f4f" width="56" height="56" x="4" y="4" rx="2.8" ry="2.8"/>
 <path style="fill-rule:evenodd;opacity:0.2" d="M 22.003906 5 C 20.024403 5.00303 18.044186 5.0153905 16.060547 5.0390625 C -0.89655696 24.010867 16.252973 36.034006 30 39 C 15.450415 29.548395 27.791059 12.218569 40 5.0234375 C 33.98979 5.0523672 28.00291 4.9908198 22.003906 5 z M 34 27 C 47.942749 36.057397 37.188648 52.324854 25.523438 60 L 48.753906 60 C 64.286833 41.586195 47.512207 29.91533 34 27 z M 29.197266 27.001953 A 7.2649654 4.3840938 45 0 0 28.974609 27.005859 A 7.2649654 4.3840938 45 0 0 26.861328 27.865234 A 7.2649654 4.3840938 45 0 0 37.134766 38.138672 A 7.2649654 4.3840938 45 0 0 29.197266 27.001953 z"/>
 <path style="fill:#ff6363;fill-rule:evenodd" d="M 22.003906 4 C 20.024403 4.0030292 18.044186 4.0153913 16.060547 4.0390625 C -0.89655684 23.010868 16.252973 35.034006 30 38 C 15.450415 28.548395 27.791059 11.218569 40 4.0234375 C 33.98979 4.0523672 28.00291 3.9908198 22.003906 4 z M 34 26 C 48.549585 35.451606 36.208941 52.781431 24 59.976562 C 31.993411 59.93809 39.944277 60.056351 47.939453 59.960938 C 64.896557 40.989133 47.747027 28.965994 34 26 z M 28.974609 26.005859 A 7.2649654 4.3840938 45 0 0 26.861328 26.865234 A 7.2649654 4.3840938 45 0 0 37.134766 37.138672 A 7.2649654 4.3840938 45 0 0 28.974609 26.005859 z"/>
 <path style="opacity:0.1;fill:#f4f4f7" d="M 6.8007812 4 C 5.2496034 4 4 5.2496034 4 6.8007812 L 4 7.8027344 C 4 6.2515566 5.2496034 5.0019531 6.8007812 5.0019531 L 57.199219 5.0019531 C 58.749196 5.0019531 60 6.2515566 60 7.8027344 L 60 6.8007812 C 60 5.2496035 58.749196 4 57.199219 4 L 6.8007812 4 z"/>
</svg>

<svg xmlns="http://www.w3.org/2000/svg" width="64" height="64" version="1"><path style="opacity:.2" d="M4 56.2v2C4 59.75 5.25 61 6.8 61h50.4c1.55 0 2.8-1.25 2.8-2.8v-2c0 1.55-1.25 2.8-2.8 2.8H6.8C5.25 59 4 57.75 4 56.2z"/><rect style="fill:#4f4f4f" width="56" height="56" x="4" y="4" rx="2.8" ry="2.8"/><path style="fill-rule:evenodd;opacity:.2" d="M22.004 5c-1.98.003-3.96.015-5.943.04C-.897 24.01 16.253 36.033 30 39c-14.55-9.452-2.209-26.781 10-33.977-6.01.03-11.997-.032-17.996-.023zM34 27c13.943 9.057 3.189 25.325-8.477 33h23.23C64.288 41.586 47.514 29.915 34 27zm-4.803.002a7.265 4.384 45 0 0-.222.004 7.265 4.384 45 0 0-2.114.86 7.265 4.384 45 0 0 10.274 10.273 7.265 4.384 45 0 0-7.938-11.137z"/><path style="fill:#ff6363;fill-rule:evenodd" d="M22.004 4c-1.98.003-3.96.015-5.943.04C-.897 23.01 16.253 35.033 30 38c-14.55-9.452-2.209-26.781 10-33.977-6.01.03-11.997-.032-17.996-.023zM34 26c14.55 9.452 2.209 26.781-10 33.977 7.993-.039 15.944.08 23.94-.016C64.896 40.989 47.746 28.966 34 26zm-5.025.006a7.265 4.384 45 0 0-2.114.86 7.265 4.384 45 0 0 10.274 10.273 7.265 4.384 45 0 0-8.16-11.133z"/><path style="opacity:.1;fill:#f4f4f7" d="M6.8 4C5.25 4 4 5.25 4 6.8v1.003c0-1.551 1.25-2.801 2.8-2.801h50.4c1.55 0 2.8 1.25 2.8 2.8V6.802C60 5.25 58.75 4 57.2 4H6.8z"/></svg>
